outline-with-bg/topics_outline_bg.svg

<svg 
    xmlns="http://www.w3.org/2000/svg" 
    width="256" 
    height="256" 
    viewBox="0 0 256 256" 
    fill="none"
    >
    
    <path 
        d="M256 128C256 198.692 198.692 256 128 256C57.3076 256 0 198.692 0 128C0 57.3076 57.3076 0 128 0C198.692 0 256 57.3076 256 128Z" 
        fill="white"
    />

    <path 
        d="M128 240C105.849 240 84.1945 233.431 65.7762 221.125C47.3579 208.818 33.0026 191.326 24.5255 170.861C16.0485 150.395 13.8306 127.876 18.1521 106.15C22.4736 84.4241 33.1406 64.4676 48.8041 48.8041C64.4676 33.1406 84.4241 22.4736 106.15 18.1521C127.876 13.8306 150.395 16.0485 170.861 24.5255C191.326 33.0026 208.818 47.3579 221.125 65.7762C233.431 84.1945 240 105.849 240 128C239.967 157.694 228.157 186.163 207.16 207.16C186.163 228.157 157.694 239.967 128 240ZM128 30C108.617 30 89.6702 35.7476 73.5542 46.516C57.4381 57.2844 44.8772 72.5899 37.4599 90.4971C30.0425 108.404 28.1017 128.109 31.8831 147.119C35.6644 166.129 44.998 183.591 58.7036 197.296C72.4091 211.002 89.871 220.336 108.881 224.117C127.891 227.898 147.596 225.958 165.503 218.54C183.41 211.123 198.716 198.562 209.484 182.446C220.252 166.33 226 147.383 226 128C225.97 102.018 215.636 77.1085 197.264 58.7363C178.892 40.3642 153.982 30.0297 128 30ZM121.918 93.896C120.098 92.8426 118.59 91.3233 117.55 89.4944C116.5 87.6314 115.949 85.529 115.949 83.3904C115.949 81.2519 116.5 79.1495 117.55 77.2864C118.592 75.4832 120.104 73.9824 121.918 72.9632C124.712 71.3828 128.012 70.955 131.116 71.7708C134.22 72.5866 136.884 74.5816 138.539 77.3312C139.637 79.1568 140.208 81.2512 140.186 83.3792C140.187 85.5038 139.629 87.5913 138.567 89.4316C137.505 91.2719 135.978 92.8001 134.138 93.8624C132.283 94.968 130.159 95.5415 128 95.52C125.864 95.5347 123.763 94.9737 121.918 93.896ZM137.083 188.682H119.04V106.989H137.117L137.083 188.682Z" 
        fill="#0F1A1C"
    />
    
</svg>

<svg 
    xmlns="http://www.w3.org/2000/svg" 
    width="256" 
    height="256" 
    fill="none" 
    viewBox="0 0 256 256"
    >

    <path 
        fill="#fff" 
        d="M256 128c0 70.692-57.308 128-128 128C57.308 256 0 198.692 0 128 0 57.308 57.308 0 128 0c70.692 0 128 57.308 128 128Z"
    />

    <path 
        fill="#0F1A1C" 
        d="M128 240a112.006 112.006 0 0 1-103.475-69.139A112.002 112.002 0 0 1 106.15 18.152 112.002 112.002 0 0 1 240 128a112.125 112.125 0 0 1-112 112Zm0-210a97.998 97.998 0 0 0-69.296 167.296 97.995 97.995 0 0 0 106.799 21.244A97.996 97.996 0 0 0 226 128a98.114 98.114 0 0 0-98-98Zm-6.082 63.896a11.86 11.86 0 0 1-4.368-4.402 12.431 12.431 0 0 1 0-12.208 11.649 11.649 0 0 1 4.368-4.323 12.321 12.321 0 0 1 16.621 4.368 11.507 11.507 0 0 1 1.647 6.048 12.097 12.097 0 0 1-6.048 10.483A11.761 11.761 0 0 1 128 95.52a11.897 11.897 0 0 1-6.082-1.624Zm15.165 94.786H119.04v-81.693h18.077l-.034 81.693Z"
    />
    
</svg>
